src/scalable/apps/applications-all.svg

<svg width="64" height="64" enable-background="new" version="1.0" xmlns="http://www.w3.org/2000/svg">
 <defs>
  <filter id="filter9957" x="-.048" y="-.048" width="1.096" height="1.096" color-interpolation-filters="sRGB">
   <feGaussianBlur stdDeviation="0.76"/>
  </filter>
  <filter id="filter10017" x="-.048" y="-.048" width="1.096" height="1.096" color-interpolation-filters="sRGB">
   <feGaussianBlur stdDeviation="1.08"/>
  </filter>
 </defs>
 <rect x="5" y="6" width="54" height="54" rx="7" ry="7" fill="#000000" filter="url(#filter10017)" opacity=".25" style="paint-order:stroke fill markers"/>
 <rect x="5" y="5" width="54" height="54" rx="7" ry="7" fill="#0d9ff2" style="paint-order:stroke fill markers"/>
 <path d="m15.666 14c-1.4773 0-2.666 1.1887-2.666 2.666v10.668c0 1.4773 1.1887 2.666 2.666 2.666h10.668c1.4773 0 2.666-1.1887 2.666-2.666v-10.668c0-1.4773-1.1887-2.666-2.666-2.666h-10.668zm22 0c-1.4773 0-2.666 1.1887-2.666 2.666v10.668c0 1.4773 1.1887 2.666 2.666 2.666h10.668c1.4773 0 2.666-1.1887 2.666-2.666v-10.668c0-1.4773-1.1887-2.666-2.666-2.666h-10.668zm-22 22c-1.4773 0-2.666 1.1887-2.666 2.666v10.668c0 1.4773 1.1887 2.666 2.666 2.666h10.668c1.4773 0 2.666-1.1887 2.666-2.666v-10.668c0-1.4773-1.1887-2.666-2.666-2.666h-10.668zm22 0c-1.4773 0-2.666 1.1887-2.666 2.666v10.668c0 1.4773 1.1887 2.666 2.666 2.666h10.668c1.4773 0 2.666-1.1887 2.666-2.666v-10.668c0-1.4773-1.1887-2.666-2.666-2.666h-10.668z" fill="#000000" filter="url(#filter9957)" opacity=".15" style="paint-order:stroke fill markers"/>
 <rect x="13" y="13" width="16" height="16" rx="2.6667" ry="2.6667" fill="#ffffff" stroke-linecap="round" stroke-linejoin="round" stroke-width=".24616" style="paint-order:stroke fill markers"/>
 <rect x="35" y="13" width="16" height="16" rx="2.6667" ry="2.6667" fill="#9fd9f9" stroke-linecap="round" stroke-linejoin="round" stroke-width=".24616" style="paint-order:stroke fill markers"/>
 <rect x="13" y="35" width="16" height="16" rx="2.6667" ry="2.6667" fill="#9fd9f9" stroke-linecap="round" stroke-linejoin="round" stroke-width=".24616" style="paint-order:stroke fill markers"/>
 <rect x="35" y="35" width="16" height="16" rx="2.6667" ry="2.6667" fill="#9fd9f9" stroke-linecap="round" stroke-linejoin="round" stroke-width=".24616" style="paint-order:stroke fill markers"/>
 <path d="m12 5c-3.878 0-7 3.122-7 7v1c0-3.878 3.122-7 7-7h40c3.878 0 7 3.122 7 7v-1c0-3.878-3.122-7-7-7h-40z" fill="#ffffff" opacity=".15" style="paint-order:stroke fill markers"/>
</svg>

<svg xmlns="http://www.w3.org/2000/svg" width="64" height="64" enable-background="new" version="1.0"><defs><filter id="b" width="1.096" height="1.096" x="-.048" y="-.048" color-interpolation-filters="sRGB"><feGaussianBlur stdDeviation=".76"/></filter><filter id="a" width="1.096" height="1.096" x="-.048" y="-.048" color-interpolation-filters="sRGB"><feGaussianBlur stdDeviation="1.08"/></filter></defs><rect width="54" height="54" x="5" y="6" filter="url(#a)" opacity=".25" rx="7" ry="7" style="paint-order:stroke fill markers"/><rect width="54" height="54" x="5" y="5" fill="#0d9ff2" rx="7" ry="7" style="paint-order:stroke fill markers"/><path d="M15.666 14A2.66 2.66 0 0 0 13 16.666v10.668A2.66 2.66 0 0 0 15.666 30h10.668A2.66 2.66 0 0 0 29 27.334V16.666A2.66 2.66 0 0 0 26.334 14zm22 0A2.66 2.66 0 0 0 35 16.666v10.668A2.66 2.66 0 0 0 37.666 30h10.668A2.66 2.66 0 0 0 51 27.334V16.666A2.66 2.66 0 0 0 48.334 14zm-22 22A2.66 2.66 0 0 0 13 38.666v10.668A2.66 2.66 0 0 0 15.666 52h10.668A2.66 2.66 0 0 0 29 49.334V38.666A2.66 2.66 0 0 0 26.334 36zm22 0A2.66 2.66 0 0 0 35 38.666v10.668A2.66 2.66 0 0 0 37.666 52h10.668A2.66 2.66 0 0 0 51 49.334V38.666A2.66 2.66 0 0 0 48.334 36z" filter="url(#b)" opacity=".15" style="paint-order:stroke fill markers"/><rect width="16" height="16" x="13" y="13" fill="#fff" rx="2.667" ry="2.667" style="paint-order:stroke fill markers"/><rect width="16" height="16" x="35" y="13" fill="#9fd9f9" rx="2.667" ry="2.667" style="paint-order:stroke fill markers"/><rect width="16" height="16" x="13" y="35" fill="#9fd9f9" rx="2.667" ry="2.667" style="paint-order:stroke fill markers"/><rect width="16" height="16" x="35" y="35" fill="#9fd9f9" rx="2.667" ry="2.667" style="paint-order:stroke fill markers"/><path fill="#fff" d="M12 5c-3.878 0-7 3.122-7 7v1c0-3.878 3.122-7 7-7h40c3.878 0 7 3.122 7 7v-1c0-3.878-3.122-7-7-7z" opacity=".15" style="paint-order:stroke fill markers"/></svg>
